svg/Pictogram/pictograms-aem-0028-engine_explosion.svg

<?xml version="1.0" encoding="ISO-8859-1" standalone="yes"?>
<svg height="304.014" width="304.015">
  <metadata>
    <rdf:RDF xmlns:cc="http://web.resource.org/cc/" xmlns:dc="http://purl.org/dc/elements/1.1/" xmlns:rdf="http://www.w3.org/1999/02/22-rdf-syntax-ns#">
      <cc:Work rdf:about="">
        <dc:title></dc:title>
        <dc:description></dc:description>
        <dc:subject>
          <rdf:Bag>
            <rdf:li></rdf:li>
          </rdf:Bag>
        </dc:subject>
        <dc:publisher>
          <cc:Agent rdf:about="http://www.unece.org/trans/danger/publi/ghs/pictograms.html">
            <dc:title>Source: UNECE GHS of Classification and Labeling of Chemicals, Source: AEM Pictorial Database, Source: AEM Pictorial Database, Source: AEM Pictorial Database, Source: AEM Pictorial Database</dc:title>
          </cc:Agent>
        </dc:publisher>
        <dc:creator>
          <cc:Agent>
            <dc:title></dc:title>
          </cc:Agent>
        </dc:creator>
        <dc:rights>
          <cc:Agent>
            <dc:title></dc:title>
          </cc:Agent>
        </dc:rights>
        <dc:date></dc:date>
        <dc:format>image/svg+xml</dc:format>
        <dc:type rdf:resource="http://purl.org/dc/dcmitype/StillImage"/>
        <cc:license rdf:resource="http://en.wikipedia.org/wiki/Public_domain"/>
        <dc:language>en</dc:language>
      </cc:Work>
    </rdf:RDF>
  </metadata>
  <defs><marker id="ArrowEnd" markerHeight="3" markerUnits="strokeWidth" markerWidth="4" orient="auto" refX="0" refY="5" viewBox="0 0 10 10"><path d="M 0 0 L 10 5 L 0 10 z"/></marker><marker id="ArrowStart" markerHeight="3" markerUnits="strokeWidth" markerWidth="4" orient="auto" refX="10" refY="5" viewBox="0 0 10 10"><path d="M 10 0 L 0 5 L 10 10 z"/></marker> </defs>
  <g id="g2958" transform="matrix(1.3532768,0,0,1.3532781,-53.207834,-52.192858)">
    <path d="M 148.546 156.041L 166.362 156.041L 166.362 159.608L 149.999 159.608L 148.546 156.041" style="stroke:none; fill-rule:evenodd; fill:#000000"/>
    <path d="M 139.081 159.608L 116.069 159.608L 116.069 156.041L 137.839 156.041L 139.081 159.608" style="stroke:none; fill-rule:evenodd; fill:#000000"/>
    <path d="M 95.0814 198.413L 84.1904 198.413L 84.1904 176.631L 82.2104 178.416L 82.2104 193.862C 82.2104 193.862 82.2104 193.862 84.1904 198.413L 84.9834 199.998L 84.9834 230.885L 81.4214 230.885L 81.4214 200.791L 78.6474 194.651L 78.6474 176.831L 87.5584 168.913L 87.5584 194.85L 95.0814 194.85L 95.0814 198.413" style="stroke:none; fill-rule:evenodd; fill:#000000"/>
    <path d="M 134.089 60.6084L 138.046 55.2604L 142.007 57.2414L 143.394 61.1984L 138.046 62.5844L 134.089 60.6084" style="stroke:none; fill-rule:evenodd; fill:#000000"/>
    <path d="M 112.308 72.4874L 116.069 74.6634L 113.101 77.0414L 110.921 76.2484L 112.308 72.4874" style="stroke:none; fill-rule:evenodd; fill:#000000"/>
    <path d="M 179.429 100.206L 186.159 95.4564L 188.339 101.592L 183.589 103.573L 179.429 100.206" style="stroke:none; fill-rule:evenodd; fill:#000000"/>
    <path d="M 164.854 131.006C 165.112 131.061 165.3 131.092 165.37 131.092C 167.55 131.686 170.519 132.479 170.519 132.479L 170.124 131.686C 169.726 131.092 169.331 127.924 169.132 126.936L 178.835 116.639L 178.835 116.045L 178.241 116.045L 166.163 121.194L 182.202 79.8114L 181.608 79.4164L 160.815 101.791L 162.8 89.5144L 162.202 89.1204L 155.272 99.6124L 155.073 57.6354L 154.483 57.6354L 146.362 95.8504L 141.808 81.3974L 141.019 81.3974L 140.226 97.4324L 120.425 57.8344L 119.831 58.0304L 126.167 102.78L 112.702 87.9284L 112.108 88.1274L 121.612 115.252L 109.14 105.549L 108.546 105.948C 113.101 113.467 117.456 121.194 122.011 128.717L 123.792 131.686L 124.581 132.874C 124.78 133.073 124.98 133.073 124.98 133.073C 125.772 133.073 126.761 132.874 127.749 132.874L 128.062 132.479L 129.038 132.561L 128.48 131.874L 125.48 111.811L 134.604 119.436L 134.104 102.998L 136.23 102.432L 143.104 114.557L 144.042 108.12L 146.104 107.87L 147.73 111.432L 149.542 104.307L 151.854 104.62L 152.854 117.807L 166.042 107.307L 160.417 124.245L 163.854 122.37L 165.421 123.932L 162.858 128.432L 167.546 128.995L 164.854 130.998" style="stroke:none; fill-rule:evenodd; fill:#000000"/>
    <path d="M 136.159 167.725L 131.515 172.475L 138.839 174.85L 135.476 178.416L 143.593 188.909L 151.315 188.909L 153.491 186.139L 148.741 179.604L 157.058 173.268L 148.94 169.706L 151.554 167.741L 153.601 167.725L 162.007 167.725C 164.187 167.327 169.136 167.327 169.136 170.495L 169.136 179.405C 169.331 179.998 170.718 183.76 173.097 183.76L 193.093 183.76C 193.093 183.76 194.081 183.959 195.073 184.358C 199.23 185.741 199.624 188.12 199.429 192.077C 199.429 193.463 199.23 194.651 199.23 195.245C 200.022 195.838 202.597 197.62 204.972 197.62C 207.347 197.62 209.128 195.838 209.726 195.245L 209.726 184.358C 209.726 184.358 209.726 183.76 209.921 183.166C 210.315 180.991 211.702 175.643 215.069 178.217C 218.038 180.991 225.366 196.432 225.366 209.303C 225.366 218.807 220.612 232.073 216.452 240.788C 216.452 240.788 215.464 240.588 214.87 240.588C 212.495 239.995 210.12 238.409 210.12 235.44L 210.12 225.342C 209.522 224.549 207.347 222.174 204.378 222.174C 201.604 222.174 199.624 224.549 199.23 225.342L 199.23 239.596C 200.218 244.545 194.675 248.311 190.319 248.706L 140.226 248.706C 133.296 250.092 127.354 240.788 123.593 236.432C 122.8 235.44 118.839 230.291 117.452 230.291L 101.218 230.291C 97.4564 230.491 94.6874 227.717 94.6874 223.561L 94.6874 186.733C 94.6874 186.733 94.8824 186.338 94.8824 185.745C 95.6754 183.366 97.4564 181.389 100.23 181.389L 106.565 181.389C 108.147 181.784 112.702 182.178 112.308 178.616C 111.909 174.26 111.315 167.725 117.851 167.725L 132.671 167.725L 136.159 167.729" style="stroke:none; fill-rule:evenodd; fill:#000000"/>
    <path d="M 137.69 166.147L 140.425 163.37L 139.511 160.788L 131.71 160.788L 131.71 166.147L 137.69 166.147" style="stroke:none; fill-rule:evenodd; fill:#000000"/>
    <path d="M 138.444 178.616L 144.776 186.534L 150.124 186.534L 150.522 186.139L 145.569 179.01L 152.503 173.862L 144.382 170.1L 150.124 165.94L 144.581 152.475L 149.136 145.151L 157.847 141.19L 158.64 132.874L 161.413 130.698L 158.839 130.299L 161.214 126.737L 156.46 129.506L 161.413 114.065L 150.917 122.381L 150.124 111.491L 148.147 118.819L 145.769 112.877L 144.581 122.186L 136.663 107.729L 137.058 124.76L 128.741 117.631L 130.722 130.897L 135.671 138.026L 134.878 144.163L 139.632 150.299L 139.632 154.061L 143.198 163.959L 135.87 171.483L 143.198 173.862L 138.444 178.612" style="stroke:none; fill-rule:evenodd; fill:#ff0000"/>
    <path d="M 150.433 160.78L 150.714 160.78L 150.73 161.42L 150.433 160.78" style="stroke:none; fill-rule:evenodd; fill:#000000"/>
    <path d="M 29.6204 265.393L 2.62042 265.393" style="stroke:#000000; stroke-width:0.5; fill:none"/>
    <path d="M 38.6204 274.393L 38.6204 301.393" style="stroke:#000000; stroke-width:0.5; fill:none"/>
    <path d="M 29.6204 38.6204L 2.62042 38.6204" style="stroke:#000000; stroke-width:0.5; fill:none"/>
    <path d="M 38.6204 29.6204L 38.6204 2.62042" style="stroke:#000000; stroke-width:0.5; fill:none"/>
    <path d="M 274.394 38.6204L 301.394 38.6204" style="stroke:#000000; stroke-width:0.5; fill:none"/>
    <path d="M 265.394 29.6204L 265.394 2.62042" style="stroke:#000000; stroke-width:0.5; fill:none"/>
    <path d="M 274.394 265.393L 301.394 265.393" style="stroke:#000000; stroke-width:0.5; fill:none"/>
    <path d="M 265.394 274.393L 265.394 301.393" style="stroke:#000000; stroke-width:0.5; fill:none"/>
  </g>
</svg>

<svg viewBox="0 0 304.01 304.01"><g transform="matrix(1.35328 0 0 1.35328-53.21-52.19)" fill-rule="evenodd"><path d="m148.55 156.04h17.816v3.567h-16.363l-1.453-3.567"/><path d="m139.08 159.61h-23.01v-3.567h21.77l1.242 3.567"/><path d="m95.08 198.41h-10.891v-21.782l-1.98 1.785v15.446c0 0 0 0 1.98 4.551l.793 1.585v30.887h-3.562v-30.09l-2.774-6.14v-17.82l8.911-7.918v25.937h7.523v3.563"/><path d="m134.09 60.61l3.957-5.348 3.961 1.981 1.387 3.957-5.348 1.386-3.957-1.976"/><path d="m112.31 72.49l3.761 2.176-2.968 2.378-2.18-.793 1.387-3.761"/><path d="m179.43 100.21l6.73-4.75 2.18 6.136-4.75 1.981-4.16-3.367"/><path d="m164.85 131.01c.258.055.446.086.516.086 2.18.594 5.149 1.387 5.149 1.387l-.395-.793c-.398-.594-.793-3.762-.992-4.75l9.703-10.297v-.594h-.594l-12.08 5.149 16.04-41.38-.594-.395-20.793 22.375 1.985-12.277-.598-.394-6.93 10.492-.199-41.977h-.59l-8.121 38.21-4.554-14.453h-.789l-.793 16.03-19.801-39.598-.594.196 6.336 44.75-13.465-14.852-.594.199 9.504 27.12-12.472-9.703-.594.399c4.555 7.519 8.91 15.246 13.465 22.769l1.781 2.969.789 1.188c.199.199.399.199.399.199.792 0 1.781-.199 2.769-.199l.313-.395.976.082-.558-.687-3-20.06 9.124 7.625-.5-16.438 2.126-.566 6.874 12.12.938-6.437 2.062-.25 1.626 3.562 1.812-7.125 2.312.313 1 13.187 13.188-10.5-5.625 16.938 3.437-1.875 1.567 1.562-2.563 4.5 4.688.563-2.692 2"/><path d="m136.16 167.72l-4.644 4.75 7.324 2.375-3.363 3.566 8.117 10.493h7.722l2.176-2.77-4.75-6.535 8.317-6.336-8.118-3.562 2.614-1.965 2.047-.016h8.406c2.18-.398 7.129-.398 7.129 2.77v8.91c.195.593 1.582 4.355 3.961 4.355h19.996c0 0 .988.199 1.98.598 4.157 1.383 4.551 3.762 4.356 7.719 0 1.386-.199 2.574-.199 3.168.792.593 3.367 2.375 5.742 2.375 2.375 0 4.156-1.782 4.754-2.375v-10.887c0 0 0-.598.195-1.192.394-2.175 1.781-7.523 5.148-4.949 2.969 2.774 10.297 18.215 10.297 31.09 0 9.504-4.754 22.77-8.914 31.485 0 0-.988-.2-1.582-.2-2.375-.593-4.75-2.179-4.75-5.148v-10.1c-.598-.793-2.773-3.168-5.742-3.168-2.774 0-4.754 2.375-5.148 3.168v14.254c.988 4.949-4.555 8.715-8.911 9.11h-50.09c-6.93 1.386-12.872-7.918-16.633-12.274-.793-.992-4.754-6.141-6.141-6.141h-16.234c-3.762.2-6.531-2.574-6.531-6.73v-36.828c0 0 .195-.395.195-.988.793-2.379 2.574-4.356 5.348-4.356h6.335c1.582.395 6.137.789 5.743-2.773-.399-4.356-.993-10.891 5.543-10.891h14.82l3.488.004"/><path d="m137.69 166.15l2.735-2.777-.914-2.582h-7.801v5.359h5.98"/><path d="m138.44 178.62l6.332 7.918h5.348l.398-.395-4.953-7.129 6.934-5.148-8.121-3.762 5.742-4.16-5.543-13.465 4.555-7.324 8.711-3.961.793-8.316 2.773-2.176-2.574-.399 2.375-3.562-4.754 2.769 4.953-15.441-10.496 8.316-.793-10.89-1.977 7.328-2.378-5.942-1.188 9.309-7.918-14.457.395 17.03-8.317-7.129 1.981 13.266 4.949 7.129-.793 6.137 4.754 6.136v3.762l3.566 9.898-7.328 7.524 7.328 2.379-4.754 4.75" fill="#f00"/><path d="m150.43 160.78h.281l.016.64-.297-.64"/></g></svg>
